X: 24289
T: Lost In The Loop
R: reel
M: 4/4
K: Cmajor
CDEF DA,A,F|EFGA FDD^F|GABc dcBc|dDcD BAGA,|
CDEF DA,A,F|EFGA FDD^F|GABc d2GF|1 DA,CD FD D/D/D:|2 DA,CD FDDA||
dDDc BGG2|ADDF ECCD|dDcD BAGA,|CDEF DA,A,A|
dDDc BGG2|ADDF ECCE|GABc d2GF|DA,CD FDDA||
d2d2 gadc|d2dc AGAc|dGGd GGdD|CDEF DA,A,A|
d2d2 gadc|d2dc AGAc|dDcD GABc|dDcD A,D D/D/D:|

